X:1
T:Someday He'll Make It Plain + I'm a Pilgrim, and I'm a Stranger
T:Someday He'll Make It Plain + I'm a Pilgrim, and I'm a Stranger 
T:Adam Geibel George S. Schuler 
T:Lida Shivers Leech, 1911 Mary Dana Shindler, 1841 
C:Adam Geibel
Z:Lida Shivers Leech, 1911
%%score 1 2 { 3 | 4 }
L:1/8
Q:1/4=85
M:4/4
K:Ab
V:1 treble nm="Alto" snm="A."
V:2 treble-8 nm="Tenor" snm="T."
V:3 treble nm="Piano" snm="Pno."
V:4 bass 
V:1
 z E =D E | A4 z F A F | G4 z E =D E | G4- G E G E | F4 z E =D E | c4 z d c =A | B4 z2 F F | %7
w: I do not|know why oft' round|me My hopes all|shat- * tered seem to|be; God's per- fect|plan I can- not|see, But some|
w: I can- not|tell the depth of|love Which moves the|Fa- * ther's heart a-|bove, My faith to|test, my love to|prove, But some|
w: Tho' tri- als|come thru' pass- ing|days, My life will|still * be filled with|praise; For God will|lead thru' dark- ened|ways, But some|
 F4 z F G A | B6 z2 | c2 c3 A E =D | _D3/2 c/ B4 z2 | B2 B3 G E D | C3/2 B/ A4 z2 | A2 A3 A B c | %14
w: day I'll un- der-|stand.|Some day He'll make it|plain to me,|Some day when I His|face shall see;|Some day from tears I|
w: day I'll un- der-|stand.||||||
w: day I'll un- der-|stand.||||||
 B3/2 F/ F4 z A | G F E c d2 G2 | A6 |] %17
w: shall be free, For|some day I shall un- der-|stand.|
w: |||
w: |||
V:2
 z2 E A | c2 A3 A G A | G2 F4 F B | d3 c =A2 B2 | (=B2 c3) E A _B | c2 A3 c B A | G2 F3 F G A | %7
w: I'm a|pil- grim, and I'm a|stran- ger, I can|tar- ry but a|night; * Do not de-|tain me, for I am|go- ing To where the|
w: There the|glo- ry is ev- er|shin- ing; O my|long- ing heart is|there: * Here in this|coun- try so dark and|drear- y I long have|
w: Of the|ci- ty to which I'm|go- ing My Re-|dee- mer is the|light; * There is no|sor- row, nor an- y|sigh- ing, nor an- y|
 B2 F3 F G A | B2 e4 E A | c2 A3 c d c | c2 B4 B c | d d F F c B G F | (F2 E4) E A | c2 A3 c d c | %14
w: foun- tains are ev- er|flow- ing. I'm a|pil- grim, and I'm a|stran- ger, I can|tar- ry, I can tar- ry but a|night; * I'm a|pil- grim, and I'm a|
w: wan- dered, for- lorn and|wear- y. * *||||||
w: sin- ning, nor an- y|dy- ing. * *||||||
 c2 B4 f f | f e E E d d c3/2 B/ | A6 |] %17
w: stran- ger, I can|tar- ry, I can tar- ry but a|night.|
w: |||
w: |||
V:3
 z E =D E | A4 z F A F | G4 z E =D E | G4- G E G E | F4 z E =D E | c4 z d c =A | B4 z2 F F | %7
 F4 z F G A | B6 z2 | c2 c3 A E =D | _D3/2 c/ B4 z2 | B2 B3 G E D | C3/2 B/ A4 z2 | A2 A3 A B c | %14
 B3/2 F/ F4 z A | G F E c d2 G2 | A6 |] %17
V:4
 z2 E, A, | C2 A,3 A, G, A, | G,2 F,4 F, B, | D3 C =A,2 B,2 | (=B,2 C3) E, A, _B, | %5
 C2 A,3 C B, A, | G,2 F,3 F, G, A, | B,2 F,3 F, G, A, | B,2 E4 E, A, | C2 A,3 C D C | C2 B,4 B, C | %11
 D D F, F, C B, G, F, | (F,2 E,4) E, A, | C2 A,3 C D C | C2 B,4 F F | F E E, E, D D C3/2 B,/ | %16
 A,6 |] %17

